swiss/communes/5717.svg

<svg xmlns="http://www.w3.org/2000/svg" xmlns:xlink="http://www.w3.org/1999/xlink" height="763" width="603" version="1.0"><defs><radialGradient xlink:href="#a" id="b" gradientUnits="userSpaceOnUse" gradientTransform="matrix(1.21503 0 0 1.26667 -839.192 -490.49)" cx="858.042" cy="579.933" fx="858.042" fy="579.933" r="300"/><linearGradient id="a"><stop style="stop-color:#fff;stop-opacity:.3137255" offset="0"/><stop offset=".19" style="stop-color:#fff;stop-opacity:.25098041"/><stop style="stop-color:#6b6b6b;stop-opacity:.1254902" offset=".6"/><stop style="stop-color:#000;stop-opacity:.1254902" offset="1"/></linearGradient></defs><g style="opacity:1"><path d="M1.5 1.5v458.869C1.5 626.68 135.814 761.5 301.5 761.5s300-134.82 300-301.131V1.5H1.5z" style="opacity:1;fill:#2b5df2"/></g><g style="opacity:1;display:inline"><path style="fill:#fff;stroke:#000;stroke-width:3" d="M308.757 179.43c16.687-3.377 29.289-18.149 29.289-35.816 0-20.153-16.395-36.547-36.547-36.547-20.152 0-36.547 16.395-36.547 36.547 0 14.476 8.678 27.653 21.806 33.449.661.292 2.298.066 2.732-1.102l4.778-12.866c.46-1.237-.36-2.434-.889-2.689-6.36-3.086-10.526-9.627-10.526-16.792 0-10.282 8.365-18.646 18.647-18.646 10.282 0 18.646 8.365 18.646 18.646 0 8.798-6.132 16.174-14.341 18.125 0 0-4.306.848-7.175 0-1.035-.318-1.563.45-1.75 1.751-.188 1.301-12.314 118.706-12.314 118.706l16.934 21.779 16.934-21.779s-9.93-102.204-9.955-102.39c-.028-.186.171-.355.278-.376z"/><path style="fill:#fff;stroke:#000;stroke-width:3" d="M480.867 248.408c-7.999 0-11.177 2.565-11.177 7.037 0 4.71 4.101 4.71 3.338 10.428-.669 5.012-5.646 13.768-15.727 18.802-9.882 4.936-35.579 6.714-65.731 6.842-32.815.141-69.382-1.715-90.071-1.715-20.689 0-57.256 1.856-90.072 1.715-30.15-.128-55.849-1.907-65.729-6.842-10.081-5.034-15.059-13.79-15.728-18.802-.763-5.718 3.338-5.718 3.338-10.428 0-4.472-3.176-7.037-11.177-7.037-7.833 0-11.963 7.234-12.107 17.465-.138 9.82 5.384 26.519 20.431 35.584 37.837 22.796 150.634 18.554 171.044 18.554 20.411 0 133.207 4.242 171.043-18.554 15.05-9.066 20.571-25.765 20.435-35.584-.148-10.231-4.277-17.465-12.11-17.465z"/><path style="fill:#fff;stroke:#000;stroke-width:3" d="M301.66 357.239c23.011-9.494 49.432-60.342 34.223-77.132-15.226-16.807-28.718 0-34.384 0-5.667 0-19.158-16.807-34.383 0-15.209 16.791 11.213 67.639 34.222 77.132a.83.83 0 0 0 .322 0z"/><circle transform="translate(-.038 -.045)" style="fill:#fff;stroke:#000;stroke-width:3" cx="301.537" cy="306.537" r="11.188"/><path d="M354.194 509.834c0 30.688 37.15 55.565 82.979 55.565 45.827 0 82.978-24.878 82.978-55.565v-6.994H354.194v6.994z" style="fill:#fff;stroke:#000;stroke-width:3"/><ellipse transform="translate(-.038 -.045)" ry="23.961" rx="82.978" cy="502.885" cx="437.21" style="fill:#fff;stroke:#000;stroke-width:3"/><path style="fill:#fff;stroke:#000;stroke-width:6;stroke-linecap:round" d="m437.173 311.615-72.017 179.316M437.173 311.615l72.018 179.316M437.173 526.8V311.615"/><circle transform="translate(-.038 -.045)" style="fill:#fff;stroke:#000;stroke-width:3" cx="437.21" cy="526.845" r="8.018"/><path style="fill:#2b5df2;stroke:#000;stroke-width:3" d="M374.561 486.481c-1.599-3.385-6.116-4.61-10.084-2.737-3.969 1.876-5.89 6.145-4.288 9.532 1.599 3.386 6.118 4.611 10.083 2.737 3.969-1.874 5.892-6.144 4.289-9.532zM499.783 486.481c1.6-3.385 6.118-4.61 10.085-2.737 3.969 1.876 5.891 6.145 4.29 9.532-1.6 3.386-6.118 4.611-10.085 2.737-3.968-1.874-5.89-6.144-4.29-9.532z"/><path d="M447.615 289.86c0-7.621-4.675-13.799-10.442-13.799-5.769 0-10.441 6.178-10.441 13.799v19.15c0 7.62 4.673 13.798 10.441 13.798 5.768 0 10.442-6.178 10.442-13.798v-19.15zM248.803 509.834c0 30.688-37.15 55.565-82.978 55.565-45.828 0-82.978-24.878-82.978-55.565v-6.994h165.956v6.994z" style="fill:#fff;stroke:#000;stroke-width:3"/><ellipse transform="translate(-.038 -.045)" ry="23.961" rx="82.978" cy="502.885" cx="165.863" style="fill:#fff;stroke:#000;stroke-width:3"/><path style="fill:#fff;stroke:#000;stroke-width:6;stroke-linecap:round" d="m165.825 311.615 72.017 179.316M165.825 311.615 93.807 490.931M165.825 526.8V311.615"/><circle transform="translate(-.038 -.045)" style="fill:#fff;stroke:#000;stroke-width:3" cx="165.863" cy="526.845" r="8.017"/><path style="fill:#2b5df2;stroke:#000;stroke-width:3" d="M228.437 486.481c1.599-3.385 6.118-4.61 10.084-2.737 3.969 1.876 5.891 6.145 4.29 9.532-1.6 3.386-6.118 4.611-10.085 2.737-3.97-1.874-5.891-6.144-4.289-9.532zM103.214 486.481c-1.599-3.385-6.118-4.61-10.085-2.737-3.969 1.876-5.891 6.145-4.289 9.532 1.599 3.386 6.117 4.611 10.084 2.737 3.97-1.874 5.892-6.144 4.29-9.532z"/><path d="M155.383 289.86c0-7.621 4.675-13.799 10.442-13.799 5.768 0 10.443 6.178 10.443 13.799v19.15c0 7.62-4.675 13.798-10.443 13.798-5.767 0-10.442-6.178-10.442-13.798v-19.15z" style="fill:#fff;stroke:#000;stroke-width:3"/></g><g style="display:inline"><path style="fill:url(#b);fill-opacity:1" d="M1.5 1.5v458.868c0 166.31 134.315 301.132 300 301.132s300-134.821 300-301.132V1.5H1.5z"/></g><g style="display:inline"><path style="fill:none;fill-opacity:1;stroke:#000;stroke-width:3;stroke-miterlimit:4;stroke-dasharray:none;stroke-opacity:1" d="M1.5 1.5v458.868c0 166.31 134.315 301.132 300 301.132s300-134.821 300-301.132V1.5H1.5z"/></g></svg>

<?xml version="1.0" encoding="UTF-8" standalone="no"?>
<svg
   xmlns:dc="http://purl.org/dc/elements/1.1/"
   xmlns:cc="http://creativecommons.org/ns#"
   xmlns:rdf="http://www.w3.org/1999/02/22-rdf-syntax-ns#"
   xmlns:svg="http://www.w3.org/2000/svg"
   xmlns="http://www.w3.org/2000/svg"
   xmlns:xlink="http://www.w3.org/1999/xlink"
   xmlns:sodipodi="http://sodipodi.sourceforge.net/DTD/sodipodi-0.dtd"
   xmlns:inkscape="http://www.inkscape.org/namespaces/inkscape"
   height="763"
   width="603"
   version="1.0"
   id="svg20"
   sodipodi:version="0.32"
   inkscape:version="0.46"
   sodipodi:docname="Founex-coat_of_arms.svg"
   sodipodi:docbase="C:\Documents and Settings\Steve\Bureau\Blason Villages Suisse pour Wikipédia (par Delta-9)"
   inkscape:output_extension="org.inkscape.output.svg.inkscape">
  <metadata
     id="metadata31">
    <rdf:RDF>
      <cc:Work
         rdf:about="">
        <dc:format>image/svg+xml</dc:format>
        <dc:type
           rdf:resource="http://purl.org/dc/dcmitype/StillImage" />
        <dc:date>07-AUG-2006</dc:date>
        <dc:creator>
          <cc:Agent>
            <dc:title>Jérôme BLUM (wagner51)</dc:title>
          </cc:Agent>
        </dc:creator>
        <cc:license
           rdf:resource="http://creativecommons.org/licenses/GPL/2.0/" />
        <dc:coverage />
        <dc:description>Gabarit pour le Projet:Blasons de WIkipédia</dc:description>
        <dc:subject>
          <rdf:Bag>
            <rdf:li>blason suisse modèle gabarit projet blasons</rdf:li>
          </rdf:Bag>
        </dc:subject>
        <dc:language>fr</dc:language>
        <dc:title>Gabrit d'un blason suisse</dc:title>
      </cc:Work>
      <cc:License
         rdf:about="http://creativecommons.org/licenses/GPL/2.0/">
        <cc:permits
           rdf:resource="http://web.resource.org/cc/Reproduction" />
        <cc:permits
           rdf:resource="http://web.resource.org/cc/Distribution" />
        <cc:requires
           rdf:resource="http://web.resource.org/cc/Notice" />
        <cc:permits
           rdf:resource="http://web.resource.org/cc/DerivativeWorks" />
        <cc:requires
           rdf:resource="http://web.resource.org/cc/ShareAlike" />
        <cc:requires
           rdf:resource="http://web.resource.org/cc/SourceCode" />
      </cc:License>
    </rdf:RDF>
  </metadata>
  <defs
     id="defs29"><inkscape:perspective
   sodipodi:type="inkscape:persp3d"
   inkscape:vp_x="0 : 381.5 : 1"
   inkscape:vp_y="0 : 1000 : 0"
   inkscape:vp_z="603 : 381.5 : 1"
   inkscape:persp3d-origin="301.5 : 254.33333 : 1"
   id="perspective28" />
<linearGradient
   id="linearGradient2893">
  <stop
     style="stop-color:#ffffff;stop-opacity:0.3137255;"
     offset="0"
     id="stop2895" />
  <stop
     id="stop2897"
     offset="0.19"
     style="stop-color:#ffffff;stop-opacity:0.25098041;" />
  <stop
     style="stop-color:#6b6b6b;stop-opacity:0.1254902;"
     offset="0.60000002"
     id="stop2901" />
  <stop
     style="stop-color:#000000;stop-opacity:0.1254902;"
     offset="1"
     id="stop2899" />
</linearGradient>
<linearGradient
   id="linearGradient2955">
  <stop
     style="stop-color:white;stop-opacity:0;"
     offset="0"
     id="stop2965" />
  <stop
     style="stop-color:black;stop-opacity:0.64583331;"
     offset="1"
     id="stop2959" />
</linearGradient>
<radialGradient
   inkscape:collect="always"
   xlink:href="#linearGradient2893"
   id="radialGradient3236"
   gradientUnits="userSpaceOnUse"
   gradientTransform="matrix(1.215027,1.531577e-24,1.464684e-23,1.266667,-839.1924,-490.4894)"
   cx="858.04236"
   cy="579.93323"
   fx="858.04236"
   fy="579.93323"
   r="300" />
<inkscape:perspective
   id="perspective2567"
   inkscape:persp3d-origin="297.63751 : 280.63 : 1"
   inkscape:vp_z="595.27502 : 420.94501 : 1"
   inkscape:vp_y="0 : 1000 : 0"
   inkscape:vp_x="0 : 420.94501 : 1"
   sodipodi:type="inkscape:persp3d" />

	
	
	
	
	
	

	

		
		
		
			
		
			
		
			
		
		
	
		
		
		
			
		
			
		
			
		
		
	
			
			
			
		
			
			
			
		</defs>
  <sodipodi:namedview
     inkscape:window-height="927"
     inkscape:window-width="1274"
     inkscape:pageshadow="2"
     inkscape:pageopacity="0.0"
     guidetolerance="10.0"
     gridtolerance="10.0"
     objecttolerance="10.0"
     borderopacity="1.0"
     bordercolor="#666666"
     pagecolor="#ffffff"
     id="base"
     inkscape:zoom="0.82890574"
     inkscape:cx="283.15592"
     inkscape:cy="403.89246"
     inkscape:window-x="20"
     inkscape:window-y="42"
     inkscape:current-layer="layer2"
     showgrid="false"
     showguides="true"
     inkscape:guide-bbox="true">
    <sodipodi:guide
       orientation="horizontal"
       position="761.5"
       id="guide1885" />
    <sodipodi:guide
       orientation="vertical"
       position="1.5"
       id="guide1887" />
    <sodipodi:guide
       orientation="horizontal"
       position="1.5"
       id="guide1889" />
    <sodipodi:guide
       orientation="vertical"
       position="601.5"
       id="guide1891" />
    <sodipodi:guide
       orientation="vertical"
       position="301.50081"
       id="guide1893" />
  </sodipodi:namedview>
  <desc
     id="desc22">Coat of Arms of Canton of Freiburg (Fribourg)</desc>
  <g
     inkscape:groupmode="layer"
     id="layer1"
     inkscape:label="Fond écu"
     style="opacity:1"
     sodipodi:insensitive="true">
    <path
       d="M 1.5,1.5 L 1.5,460.369 C 1.5,626.68 135.814,761.5 301.5,761.5 C 467.186,761.5 601.5,626.68 601.5,460.369 L 601.5,1.5 L 1.5,1.5 z"
       id="path2574"
       style="opacity:1;fill:#2b5df2" />
  </g>
  <g
     inkscape:groupmode="layer"
     id="layer2"
     inkscape:label="Meubles"
     style="opacity:1;display:inline"
     sodipodi:insensitive="true">
    <g
       id="g2686">
      <path
         style="fill:#ffffff;stroke:#000000;stroke-width:3"
         d="M 308.757,179.43 C 325.444,176.053 338.046,161.281 338.046,143.614 C 338.046,123.461 321.651,107.067 301.499,107.067 C 281.347,107.067 264.952,123.462 264.952,143.614 C 264.952,158.09 273.63,171.267 286.758,177.063 C 287.419,177.355 289.056,177.129 289.49,175.961 C 290.896,172.177 293.917,164.04 294.268,163.095 C 294.728,161.858 293.908,160.661 293.379,160.406 C 287.019,157.32 282.853,150.779 282.853,143.614 C 282.853,133.332 291.218,124.968 301.5,124.968 C 311.782,124.968 320.146,133.333 320.146,143.614 C 320.146,152.412 314.014,159.788 305.805,161.739 C 305.805,161.739 301.499,162.587 298.63,161.739 C 297.595,161.421 297.067,162.189 296.88,163.49 C 296.692,164.791 284.566,282.196 284.566,282.196 L 301.5,303.975 L 318.434,282.196 C 318.434,282.196 308.504,179.992 308.479,179.806 C 308.451,179.62 308.65,179.451 308.757,179.43 z"
         id="path2510" />
      <path
         style="fill:#ffffff;stroke:#000000;stroke-width:3"
         d="M 480.867,248.408 C 472.868,248.408 469.69,250.973 469.69,255.445 C 469.69,260.155 473.791,260.155 473.028,265.873 C 472.359,270.885 467.382,279.641 457.301,284.675 C 447.419,289.611 421.722,291.389 391.57,291.517 C 358.755,291.658 322.188,289.802 301.499,289.802 C 280.81,289.802 244.243,291.658 211.427,291.517 C 181.277,291.389 155.578,289.61 145.698,284.675 C 135.617,279.641 130.639,270.885 129.97,265.873 C 129.207,260.155 133.308,260.155 133.308,255.445 C 133.308,250.973 130.132,248.408 122.131,248.408 C 114.298,248.408 110.168,255.642 110.024,265.873 C 109.886,275.693 115.408,292.392 130.455,301.457 C 168.292,324.253 281.089,320.011 301.499,320.011 C 321.91,320.011 434.706,324.253 472.542,301.457 C 487.592,292.391 493.113,275.692 492.977,265.873 C 492.829,255.642 488.7,248.408 480.867,248.408 z"
         id="path2512" />
      <path
         style="fill:#ffffff;stroke:#000000;stroke-width:3"
         d="M 301.66,357.239 C 324.671,347.745 351.092,296.897 335.883,280.107 C 320.657,263.3 307.165,280.107 301.499,280.107 C 295.832,280.107 282.341,263.3 267.116,280.107 C 251.907,296.898 278.329,347.746 301.338,357.239 C 301.392,357.26 301.607,357.26 301.66,357.239 z"
         id="path2514" />
      <circle
         transform="translate(-3.8e-2,-4.5e-2)"
         style="fill:#ffffff;stroke:#000000;stroke-width:3"
         sodipodi:ry="11.188"
         sodipodi:rx="11.188"
         sodipodi:cy="306.53699"
         sodipodi:cx="301.53699"
         cx="301.53699"
         cy="306.53699"
         r="11.188"
         id="circle2516" />
      <path
         id="path2520"
         d="M 354.194,509.834 C 354.194,540.522 391.344,565.399 437.173,565.399 C 483,565.399 520.151,540.521 520.151,509.834 C 520.151,508.716 520.151,502.84 520.151,502.84 L 354.194,502.84 L 354.194,509.834 z"
         style="fill:#ffffff;stroke:#000000;stroke-width:3" />
      <ellipse
         transform="translate(-3.8e-2,-4.5e-2)"
         id="ellipse2522"
         ry="23.961"
         rx="82.977997"
         cy="502.88501"
         cx="437.20999"
         sodipodi:cx="437.20999"
         sodipodi:cy="502.88501"
         sodipodi:rx="82.977997"
         sodipodi:ry="23.961"
         style="fill:#ffffff;stroke:#000000;stroke-width:3" />
      <line
         id="line2524"
         y2="490.931"
         x2="365.15601"
         y1="311.61499"
         x1="437.173"
         style="fill:#ffffff;stroke:#000000;stroke-width:6;stroke-linecap:round" />
      <line
         id="line2526"
         y2="490.931"
         x2="509.19101"
         y1="311.61499"
         x1="437.173"
         style="fill:#ffffff;stroke:#000000;stroke-width:6;stroke-linecap:round" />
      <line
         id="line2528"
         y2="311.61499"
         x2="437.173"
         y1="526.79999"
         x1="437.173"
         style="fill:#ffffff;stroke:#000000;stroke-width:6;stroke-linecap:round" />
      <circle
         transform="translate(-3.8e-2,-4.5e-2)"
         style="fill:#ffffff;stroke:#000000;stroke-width:3"
         sodipodi:ry="8.0179996"
         sodipodi:rx="8.0179996"
         sodipodi:cy="526.84497"
         sodipodi:cx="437.20999"
         cx="437.20999"
         cy="526.84497"
         r="8.0179996"
         id="circle2532" />
      <path
         style="fill:#2b5df2;stroke:#000000;stroke-width:3"
         d="M 374.561,486.481 C 372.962,483.096 368.445,481.871 364.477,483.744 C 360.508,485.62 358.587,489.889 360.189,493.276 C 361.788,496.662 366.307,497.887 370.272,496.013 C 374.241,494.139 376.164,489.869 374.561,486.481 z"
         id="path2534" />
      <path
         style="fill:#2b5df2;stroke:#000000;stroke-width:3"
         d="M 499.783,486.481 C 501.383,483.096 505.901,481.871 509.868,483.744 C 513.837,485.62 515.759,489.889 514.158,493.276 C 512.558,496.662 508.04,497.887 504.073,496.013 C 500.105,494.139 498.183,489.869 499.783,486.481 z"
         id="path2536" />
      <path
         id="path2538"
         d="M 447.615,289.86 C 447.615,282.239 442.94,276.061 437.173,276.061 L 437.173,276.061 C 431.404,276.061 426.732,282.239 426.732,289.86 L 426.732,309.01 C 426.732,316.63 431.405,322.808 437.173,322.808 L 437.173,322.808 C 442.941,322.808 447.615,316.63 447.615,309.01 L 447.615,289.86 z"
         style="fill:#ffffff;stroke:#000000;stroke-width:3" />
      <path
         id="path2542"
         d="M 248.803,509.834 C 248.803,540.522 211.653,565.399 165.825,565.399 C 119.997,565.399 82.847,540.521 82.847,509.834 C 82.847,508.716 82.847,502.84 82.847,502.84 L 248.803,502.84 L 248.803,509.834 z"
         style="fill:#ffffff;stroke:#000000;stroke-width:3" />
      <ellipse
         transform="translate(-3.8e-2,-4.5e-2)"
         id="ellipse2544"
         ry="23.961"
         rx="82.977997"
         cy="502.88501"
         cx="165.86301"
         sodipodi:cx="165.86301"
         sodipodi:cy="502.88501"
         sodipodi:rx="82.977997"
         sodipodi:ry="23.961"
         style="fill:#ffffff;stroke:#000000;stroke-width:3" />
      <line
         id="line2546"
         y2="490.931"
         x2="237.84201"
         y1="311.61499"
         x1="165.82501"
         style="fill:#ffffff;stroke:#000000;stroke-width:6;stroke-linecap:round" />
      <line
         id="line2548"
         y2="490.931"
         x2="93.806999"
         y1="311.61499"
         x1="165.82501"
         style="fill:#ffffff;stroke:#000000;stroke-width:6;stroke-linecap:round" />
      <line
         id="line2550"
         y2="311.61499"
         x2="165.82501"
         y1="526.79999"
         x1="165.82501"
         style="fill:#ffffff;stroke:#000000;stroke-width:6;stroke-linecap:round" />
      <circle
         transform="translate(-3.8e-2,-4.5e-2)"
         style="fill:#ffffff;stroke:#000000;stroke-width:3"
         sodipodi:ry="8.0170002"
         sodipodi:rx="8.0170002"
         sodipodi:cy="526.84497"
         sodipodi:cx="165.86301"
         cx="165.86301"
         cy="526.84497"
         r="8.0170002"
         id="circle2554" />
      <path
         style="fill:#2b5df2;stroke:#000000;stroke-width:3"
         d="M 228.437,486.481 C 230.036,483.096 234.555,481.871 238.521,483.744 C 242.49,485.62 244.412,489.889 242.811,493.276 C 241.211,496.662 236.693,497.887 232.726,496.013 C 228.756,494.139 226.835,489.869 228.437,486.481 z"
         id="path2556" />
      <path
         style="fill:#2b5df2;stroke:#000000;stroke-width:3"
         d="M 103.214,486.481 C 101.615,483.096 97.096,481.871 93.129,483.744 C 89.16,485.62 87.238,489.889 88.84,493.276 C 90.439,496.662 94.957,497.887 98.924,496.013 C 102.894,494.139 104.816,489.869 103.214,486.481 z"
         id="path2558" />
      <path
         id="path2560"
         d="M 155.383,289.86 C 155.383,282.239 160.058,276.061 165.825,276.061 L 165.825,276.061 C 171.593,276.061 176.268,282.239 176.268,289.86 L 176.268,309.01 C 176.268,316.63 171.593,322.808 165.825,322.808 L 165.825,322.808 C 160.058,322.808 155.383,316.63 155.383,309.01 L 155.383,289.86 z"
         style="fill:#ffffff;stroke:#000000;stroke-width:3" />
    </g>
  </g>
  <g
     inkscape:groupmode="layer"
     id="layer3"
     inkscape:label="Reflet final"
     style="display:inline"
     sodipodi:insensitive="true">
    <path
       style="fill:url(#radialGradient3236);fill-opacity:1"
       d="M 1.5,1.5 L 1.5,460.3679 C 1.5,626.67854 135.81454,761.5 301.49993,761.5 C 467.1854,761.5 601.5,626.67854 601.5,460.3679 L 601.5,1.5 L 1.5,1.5 z "
       id="path2346" />
  </g>
  <g
     inkscape:groupmode="layer"
     id="layer4"
     inkscape:label="Contour final"
     style="display:inline"
     sodipodi:insensitive="true">
    <path
       style="fill:none;fill-opacity:1;stroke:#000000;stroke-width:3;stroke-miterlimit:4;stroke-dasharray:none;stroke-opacity:1"
       d="M 1.5,1.5 L 1.5,460.36794 C 1.5,626.67854 135.81454,761.5 301.49993,761.5 C 467.1854,761.5 601.5,626.67854 601.5,460.36794 L 601.5,1.5 L 1.5,1.5 z "
       id="path3239" />
  </g>
</svg>
